!!!OTL: Sehnsucht
!!!ARE: Europa, Mitteleuropa, Deutschland
!!!SCT: A0259
!!!YEM: Copyright 1995, estate of Helmut Schaffrath.
**kern
*ICvox
*Ivox
!! Mixed meters:  6/2; 4/2
*M4/2
*k[b-]
*d:
{2g
=1
1a
2a
2a
1dd
=2
1ccn
2a
2fn
1g
=3
1fn
2r}
{2g
=4
*M6/2
2a
1dd
2ccn
2dd
2b
=5
*M4/2
1a
2r}
{2g
=6
2a
2b-
2ccn
2ccn
=7
1dd
1a}
=8
{1dd
=9
*M6/2
1ccn
2b-
2a
2b-
2g
=10
*M4/2
1fn}
{1ccn
=11
2b-
2a
2g
2fn
=12
1e
1d}
=13
{2e
2fn
=14
*M6/2
1ccn
2a
2ccn
1g
=15
*M4/2
1fn
2r}
{2fn
=16
2a
2a
2ccn
2ccn
=17
1dd
1a}
=18
{1g
=19
*M6/2
2a
1g
2fn
1e
=20
1.d}
==
!!!AGN: Romanze, Ballade, Lied
!! Locheimer Lbb. 1450 No. 17. Die Rhythmisierung ist von Boehme,
!!    sie folgt der "musikalischen Vernunft".
!!!ONB: ESAC (Essen Associative Code) Database: ALTDEU
!!!AMT: irregular
!!!AIN: vox
!!!EED: Helmut Schaffrath
!!!EEV: 1.0
*-
